actions/24/document-revert-rtl.svg

<?xml version='1.0' encoding='ASCII' standalone='yes'?>
<svg xmlns="http://www.w3.org/2000/svg" xmlns:xlink="http://www.w3.org/1999/xlink" version="1.1" width="24px" height="24px">
  <g transform="translate(4.0, 4.0) scale(1 1) "><defs id="defs8"/>
  <sodipodi:namedview xmlns:sodipodi="http://sodipodi.sourceforge.net/DTD/sodipodi-0.dtd" xmlns:inkscape="http://www.inkscape.org/namespaces/inkscape" id="namedview6" pagecolor="#ffffff" bordercolor="#000000" borderopacity="0.25" inkscape:showpageshadow="2" inkscape:pageopacity="0.0" inkscape:pagecheckerboard="0" inkscape:deskcolor="#d1d1d1" showgrid="false" inkscape:zoom="32.09375" inkscape:cx="3.0223953" inkscape:cy="8.7088608" inkscape:current-layer="svg4"/>
  <path d="m 4 0 c -1.644531 0 -3 1.355469 -3 3 v 3 c 0 0.550781 0.449219 1 1 1 s 1 -0.449219 1 -1 v -3 c 0 -0.570312 0.429688 -1 1 -1 h 5.585938 l 3.414062 3.414062 v 7.585938 c 0 0.570312 -0.429688 1 -1 1 h -7 c -0.550781 0 -1 0.449219 -1 1 s 0.449219 1 1 1 h 7 c 1.644531 0 3 -1.355469 3 -3 v -8 c 0 -0.265625 -0.105469 -0.519531 -0.292969 -0.707031 l -4 -4 c -0.1875 -0.1875 -0.441406 -0.292969 -0.707031 -0.292969 z m 3 5 c -0.265625 0 -0.519531 0.105469 -0.707031 0.292969 c -0.390625 0.390625 -0.390625 1.023437 0 1.414062 l 1.292969 1.292969 h -2.585938 c -2.195312 0 -4 1.800781 -4 4 v 4 h 2 v -4 c 0 -1.117188 0.882812 -2 2 -2 h 2.585938 l -1.292969 1.292969 c -0.390625 0.390625 -0.390625 1.023437 0 1.414062 s 1.023437 0.390625 1.414062 0 l 3 -3 c 0.390625 -0.390625 0.390625 -1.023437 0 -1.414062 l -3 -3 c -0.1875 -0.1875 -0.441406 -0.292969 -0.707031 -0.292969 z m 0 0" fill="#2e3436" id="path2" style="fill:#dfdfdf;fill-opacity:1"/>
</g>
</svg>

<?xml version="1.0" encoding="UTF-8" standalone="no"?>
<svg
   version="1.1"
   width="24px"
   height="24px"
   id="svg7"
   sodipodi:docname="document-revert-rtl.svg"
   inkscape:version="1.2.1 (9c6d41e410, 2022-07-14, custom)"
   xmlns:inkscape="http://www.inkscape.org/namespaces/inkscape"
   xmlns:sodipodi="http://sodipodi.sourceforge.net/DTD/sodipodi-0.dtd"
   xmlns="http://www.w3.org/2000/svg"
   xmlns:svg="http://www.w3.org/2000/svg">
  <defs
     id="defs9" />
  <g
     transform="translate(4.0, 4.0) scale(1 1) "
     id="g5">
    <defs
       id="defs8" />
    <sodipodi:namedview
       id="namedview6"
       pagecolor="#000000"
       bordercolor="#000000"
       borderopacity="0.25"
       inkscape:showpageshadow="2"
       inkscape:pageopacity="0"
       inkscape:pagecheckerboard="0"
       inkscape:deskcolor="#d1d1d1"
       showgrid="false"
       inkscape:zoom="32.09375"
       inkscape:cx="3.0223953"
       inkscape:cy="8.6932814"
       inkscape:current-layer="g5"
       inkscape:window-width="1920"
       inkscape:window-height="1051"
       inkscape:window-x="0"
       inkscape:window-y="29"
       inkscape:window-maximized="1" />
    <path
       d="M 4,0 C 2.355469,0 1,1.355469 1,3 V 6 C 1,6.550781 1.449219,7 2,7 2.550781,7 3,6.550781 3,6 V 3 C 3,2.429688 3.429688,2 4,2 H 9.585938 L 13,5.414062 V 13 c 0,0.570312 -0.429688,1 -1,1 H 5 c -0.550781,0 -1,0.449219 -1,1 0,0.550781 0.449219,1 1,1 h 7 c 1.644531,0 3,-1.355469 3,-3 V 5 C 15,4.734375 14.894531,4.480469 14.707031,4.292969 l -4,-4 C 10.519531,0.105469 10.265625,0 10,0 Z M 7,5 C 6.734375,5 6.480469,5.105469 6.292969,5.292969 c -0.390625,0.390625 -0.390625,1.023437 0,1.414062 L 7.0285421,7.4426041 7.0689361,7.8890275 6.8857108,8 H 5 C 2.804688,8 1,9.800781 1,12 v 4 h 2 v -4 c 0,-1.117188 0.882812,-2 2,-2 h 1.997832 l 0.2595436,0.125388 -0.070917,0.274092 -0.8934891,0.893489 c -0.390625,0.390625 -0.390625,1.023437 0,1.414062 0.390625,0.390625 1.023437,0.390625 1.414062,0 l 3,-3 c 0.390625,-0.390625 0.390625,-1.023437 0,-1.414062 l -3,-3 C 7.519531,5.105469 7.265625,5 7,5 Z"
       fill="#2e3436"
       id="path2"
       style="fill:#dfdfdf;fill-opacity:1"
       sodipodi:nodetypes="sssssssccssssssssssssssscccssccsscccsssssss" />
  </g>
</svg>
